icons/lines/additem.svg

<svg xmlns="http://www.w3.org/2000/svg" width="24" height="24" viewBox="0 0 24 24" fill="none" stroke="currentColor" stroke-width="2" stroke-linecap="round" stroke-linejoin="round" >
  <g clip-path="url(#clip0_40_2662)">
  <path d="M8 16H5.43C3.14 16 2 14.86 2 12.57V5.43C2 3.14 3.14 2 5.43 2H10C12.29 2 13.43 3.14 13.43 5.43"/>
  <path d="M18.5698 22H13.9998C11.7098 22 10.5698 20.86 10.5698 18.57V11.43C10.5698 9.14 11.7098 8 13.9998 8H18.5698C20.8598 8 21.9998 9.14 21.9998 11.43V18.57C21.9998 20.86 20.8598 22 18.5698 22Z"/>
  <path d="M14.8701 15H18.1301"/>
  <path d="M16.5 16.63V13.37"/>
  </g>
  <defs>
  <clipPath id="clip0_40_2662">
  <rect width="24" height="24"/>
  </clipPath>
  </defs>
  </svg>

<svg xmlns="http://www.w3.org/2000/svg" width="24" height="24" viewBox="0 0 24 24" fill="none" stroke="currentColor" stroke-width="2" stroke-linecap="round" stroke-linejoin="round">
  <path d="M14 22c-2.29 0-3.43-1.14-3.43-3.43v-7.14C10.57 9.14 11.71 8 14 8h4.57C20.86 8 22 9.14 22 11.43v7.14c0 2.29-1.14 3.43-3.43 3.43z" />
  <path d="M14.87 15h3.26" />
  <path d="M16.5 16.63v-3.26" />
  <path d="M8 16H5.43C3.14 16 2 14.86 2 12.57V5.43C2 3.14 3.14 2 5.43 2H10c2.29 0 3.43 1.14 3.43 3.43" />
</svg>
